!!!!SEGMENT: pl-wn--mus-iii-110-038-cim--001-003_brzowska-jadwiga--le-diane-contredanses-composees-pour-le-piano-fig-3.krn
!!!cenid: 18xx:4437
!!!COM: Brzowska, Jadwiga
!!!COM-rismID: pe50052590
!!!CDT: 1830-1886
!!!CNT: Polish
!!!GTL: Le Diane: Contredanses composées pour le piano
!!!OTL: Fig. 3
!!!OMV: 003
!!!PDT: 1848
!!!AGN: Secular; Contradance
!!!YEC: Copyright 2022 Narodowy Instytut Fryderyka Chopina (https://polishscores.org)
!!!YEM: License CC-BY-4.0 (https://creativecommons.org/licenses/by/4.0)
!!!SMS-siglum: PL-Wn
!!!SMS-shelfmark: Mus.III.110.038 Cim.
!!!SMS-shelfwork: 001-003 G
!!!SMS-variant:
!!!SMS-altvar:
!!!NIFC-rismSourceID:
!!!NIFC-rismChildID:
!!!NIFC-islandoraID: none
!!!URL-pdf-islandora:
!!!URL-scan: https://polona.pl/item-view/59c5dde7-d015-4f2b-b38f-cb13e1316317?page=4
!!!IIIF:
!!!ONB-nifc: UWAGA: Fig. 3 na str. 4
!!!AIN: 2 piano
!!!key: A-
!!!OMD: Pesante
!!!filter-modern: sic -sq | shed -k -e "s/[<>]//g" | shed -k -e "s/:TUP:/:tup:/L" | shed -e "s/LO:HP:(a|b|rj)/LO:hp:$1/L" | shed -k -e "s/LO:N:vis/LO:n:vis:/L" | shed -e "s/:rj/:RJ/L" | shed -e "s/^(\d+[\/\\]right)/$1yy/I;s/^(\d+[\/\\]left)/$1yy/I" | shed -e "s/LO:DY:(a|b|rj)/LO:dy:$1/L" | shed -e "s/-//B" | modori -m | tie -s | autostem -r | humtr -p
**kern	**kern	**dynam
*part2	*part1	*part1
*staff2	*staff1	*
*I"Piano	*I"Piano	*
*mI"Pianoforte	*mI"Pianoforte	*
*I'	*I'	*
*mI'pf	*mI'pf	*
*Ipiano	*Ipiano	*
*ICklav	*ICklav	*
*>[A,B,A]	*>[A,B,A]	*>[A,B,A]
*>A	*>A	*>A
*clefF4	*clefG2	*
*k[b-e-a-d-]	*k[b-e-a-d-]	*
*A-:	*A-:	*
*M6/8	*M6/8	*
=1	=1	=1
4.A- 4.E- 4.C 4.AA-\	[4.aa- [4.ee- [>4.cc [>4.a-\	.
4.c 4.A- 4.E- 4.C\	8aa-]L 8ee-] 8cc] 8a-\]	.
.	8gg 8g\	.
.	8ffJ 8f\	.
=2	=2	=2
4.A- 4.E- 4.C 4.AA-\	[4.ee- [4.cc [>4.a- [>4.e-\	.
4.c 4.A- 4.E- 4.C\	8ee-]L 8cc] 8a-] 8e-\]	.
.	8ff 8f\	.
.	8ggJ 8g\	.
=3	=3	=3
4.A- 4.E- 4.C 4.AA-\	8aa-L 8ee- 8cc 8a-\	.
.	8gg 8g\	.
.	8aa-J 8a-\	.
4.c 4.A- 4.E- 4.C\	8cccL 8aa- 8ee- 8cc\	.
.	8bbn 8bn\	.
.	8cccJ 8cc\	.
=4	=4	=4
4.A- 4.E- 4.C 4.AA-\	4.eee- 4.ccc 4.aa- 4.ee-\	.
4.c 4.A- 4.E- 4.C\	4.ccc 4.aa- 4.ee- 4.cc\	.
=5	=5	=5
4.En 4.EEn/	[4.ddd-^^ [4.bb- [>4.gg [>4.dd-\	.
4.d- 4.B- 4.G 4.E\	8ddd-]L 8bb-] 8gg] 8dd-\]	.
.	8ccc 8cc\	.
.	8bb-J 8b-\	.
!!LO:LB:g=original
=6	=6	=6
4.F 4.FF\	[4.ccc [4.aa- [>4.ff [>4.cc\	.
4.f 4.c 4.A-\	8ccc]L 8aa-] 8ff] 8cc\]	.
.	8bb- 8b-\	.
.	8aa-J 8a-\	.
=7	=7	=7
4.G 4.GG\	8ggL 8ee- 8cc 8g\	.
.	8aaa- 8aa-\	.
.	8gggJ 8gg\	.
4.g 4.dn 4.Bn 4.G\	8fffL 8ff\	.
.	8dddn 8ddn\	.
.	8eee-J 8ee-\	.
=8	=8	=8
[4.c [4.G [>4.E- [>4.C\	[4.ccc [4.gg [>4.ee- [>4.cc\	.
!	!LO:TX:b:t=Fine:mod=	!
4.c] 4.G] 4.E-] 4.C\]	4.ccc] 4.gg] 4.ee-] 4.cc\]	.
!!LO:TX:a:B:rj:t=:mod=Fine
=9||	=9||	=9||
*>B	*>B	*>B
*	*^	*
!	!LO:MO:mod=!LO&colon;TX&colon;a&colon;i&colon;t=dolce	!	!
!	!LO:TX:b:i:t=dolce	!	!
4.E- 4.EE-/	4.b-/	8r	.
.	.	8e-L 8d-X\	.
.	.	8e-J 8d-\	.
4.G 4.E-\	4.an/	8r	.
.	.	8e-L 8d-\	.
.	.	8e-J 8d-\	.
=10	=10	=10	=10
4.E- 4.EE-/	4.b-/	8r	.
.	.	8e-L 8d-\	.
.	.	8e-J 8d-\	.
4.G 4.E-\	4.cc/	8r	.
.	.	8e-L 8d-\	.
.	.	8e-J 8d-\	.
=11	=11	=11	=11
4.A- 4.AA-\	4.a-/	8r	.
.	.	8e-L 8c\	.
.	.	8e-J 8c\	.
4.c 4.A- 4.E-\	8r	4.ryy	.
!	!LO:N:vis=16	!	!
.	8cc/L	.	.
!	!LO:N:vis=16	!	!
.	8ee-/J	.	.
*	*v	*v	*
!!LO:LB:g=original
=12	=12	=12
4.A- 4.AA-\	[4.aa- [>4.cc\	.
4.c 4.A- 4.E-\	8aa-]L 8cc\]	.
.	8gg\	.
.	8ff\J	.
=13	=13	=13
!	!	!LO:HP:t=cres-cen-do:ext2u
8E- 8EE-/	8eee-L 8ee-\	<
8d-L 8B- 8G 8E-\	8ddd- 8dd-\	.
8d-J 8B- 8G 8E-\	8eee-J 8ee-\	.
8d-L 8B- 8G 8E-\	8eeenL 8een\	.
8d- 8B- 8G 8E-\	8fff 8ff\	.
8d-J 8B- 8G 8E-\	8fff#XJ 8ff#X\	.
=14	=14	=14
8d-L 8B- 8G 8E-\	[4.ggg [>4.gg\	.
8r	.	.
8d-J 8B- 8G 8E-\	.	.
8d-L 8B- 8G 8E-\	8ggg]L 8gg\]	.
8r	8fff 8ff\	.
!	!	!LO:MO:null:mod=[[
8d-J 8B- 8G 8E-\	8gggJ 8gg\	.
=15	=15	=15
!	!	!LO:MO:mod=f
8A-L 8AA-\	[4.bbb- [>4.bb-\	[
!	!	!LO:MO:null:mod=.
8r	.	f
8cJ 8A- 8E-\	.	.
8cL 8A- 8E-\	8bbb-]L 8bb-\]	.
8r	8aaa- 8aa-\	.
8cJ 8A- 8E-\	8fffJ 8ff\	.
=16	=16	=16
8cL 8A- 8E-\	[4.eee- [>4.ee-\	.
8r	.	.
8cJ 8A- 8E-\	.	.
8cL 8A- 8E-\	8eee-] 8ee-\]	.
8r	8r	.
8cJ 8A- 8E-\	8r	.
!!LO:LB:g=original
=17	=17	=17
*	*^	*
!	!LO:MO:mod=!LO&colon;TX&colon;a&colon;i&colon;t=dolce	!	!
!	!LO:TX:b:i:t=dolce	!	!
!	!LO:N:vis=4.	!	!
4.E- 4.EE-/	8b-/L	4.b-\	.
.	8e-/	.	.
.	8d-/J	.	.
!	!LO:N:vis=4.	!	!
4.G 4.E- 4.D-\	8an/L	4.an\	.
.	8e-/	.	.
.	8d-/J	.	.
=18	=18	=18	=18
!	!LO:N:vis=4.	!	!
4.E- 4.EE-/	8b-/L	4.b-\	.
.	8e-/	.	.
.	8d-/J	.	.
!	!LO:N:vis=4.	!	!
4.G 4.E- 4.D-\	8bn/L	4.b\	.
.	8e-/	.	.
.	8d-/J	.	.
=19	=19	=19	=19
!	!LO:N:vis=4.	!	!
4.A- 4.AA-\	8cc/L	4.cc\	.
.	8a-/	.	.
.	8e-/J	.	.
!	!LO:N:vis=4.	!	!
4.d- 4.A-X 4.E-\	8dd-/L	4.dd-\	.
.	8b-/	.	.
.	8e-/J	.	.
=20	=20	=20	=20
!	!LO:N:vis=4.	!	!
4.A- 4.AA-\	8ddn/L	4.dd\	.
.	8bn/	.	.
.	8e-/J	.	.
!	!LO:N:vis=4.	!	!
4.c 4.A- 4.E-\	8ee-/L	4.ee-\	.
.	8cc/	.	.
.	8e-/J	.	.
*	*v	*v	*
=21	=21	=21
4.D- 4.DD-/	4ff 4f\	.
.	16r	.
.	16fff 16ff\	<
4.B- 4.F 4.D-\	8fffL 8ff\	.
.	8ggg 8gg\	.
.	8aaa-J 8aa-\	[[
!!LO:LB:g=original
=22	=22	=22
4.E- 4.EE-/	[4.aaa- [>4.aa-\	.
4.c 4.A- 4.E-\	8aaa-]L 8aa-\]	.
.	8ggg 8gg\	.
.	8fffJ 8ff\	.
=23	=23	=23
4.E- 4.EE-/	[4.eee- [>4.ee-\	>
4.d- 4.B- 4.E-\	8eee-]L 8ee-\]	.
.	8ddd- 8dd-\	.
.	8cccJ 8cc\	]]
=24	=24	=24
[4.A- [>4.AA-\	[4.aa- [4.ee- [>4.cc [>4.a-\	.
4.A-] 4.AA-\]	4.aa-] 4.ee-] 4.cc] 4.a-\]	.
=25||	=25||	=25||
*k[b-e-a-d-g-]	*k[b-e-a-d-g-]	*
!	!LO:MO:mod=!LO&colon;TX&colon;a&colon;i&colon;t=dolce	!
!	!LO:TX:b:i:t=dolce	!
8D-\L	[4.ddd-\	.
8A-\	.	.
8d-\J	.	.
8f\L	8ddd-\L]	.
8d-\	8ccc\	.
8A-\J	8bb-\J	.
=26	=26	=26
8D-\L	[4.aa-\	.
8A-\	.	.
8d-\J	.	.
8f\L	8aa-\L]	.
8d-\	8gg-\	.
8A-\J	8aa-\J	.
=27	=27	=27
.	8qccc/	.
8D-\L	8bb-\L	.
8B-\	8r	.
8d-\J	8aan\J	.
8g-\L	8bb-\L	.
8d-\	8r	.
8B-\J	8ddd-\J	.
!!LO:LB:g=original
=28	=28	=28
8D-\L	4.ggn\	.
8A-\	.	.
8d-\J	.	.
8f\L	8aa-\	.
8d-\	8r	.
8A-\J	8r	.
=29	=29	=29
4.A- 4.AA-\	8gg-\L	.
.	8fff\	.
.	8eee-\J	.
4.e- 4.c 4.A- 4.G-\	8gg-\L	.
.	8fff\	.
.	8eee-\J	.
=30	=30	=30
4.d- 4.D-\	8ff\L	.
.	8eee-\	.
.	8ddd-\J	.
4.f 4.d- 4.A-\	8ff\L	.
.	8eee-\	.
.	8ddd-\J	.
=31	=31	=31
4.A- 4.AA-\	8ccc\L	f
.	8aaa-\	.
.	8ggg-\J	.
!	!LO:TUP:a:problem:klamra łukowa	!
4.c 4.A- 4.G- 4.E-\	40%3eee-\LL	.
.	40%3ccc\	.
.	40%3aa-\	.
.	40%3gg-\	.
.	40%3ee-\JJ	.
=32	=32	=32
[4.d- [4.A- [>4.F [>4.D-\	[4.dd-\	.
!	!LO:TX:b:i:t=D C al Fine:mod=	!
4.d-] 4.A-] 4.F] 4.D-\]	4.dd-\]	.
!!LO:TX:a:B:t=:mod=Da Capo al Fine
==	==	==
*-	*-	*-
!!!system-decoration: {(*)}
!!!RDF**kern: > = above
!!!ENC: Andrzej Gręziak
!!!END: 2023-07-25
!!!ENC: Marta Lawrence
!!!END: 2023-07-26
!!!ENC-modern: Andrzej Borzym
!!!END-modern: 2023-07-28
